X:20
T:Paul Revere's Ride or Jefferson and Liberty
T:1776
S:American Veteran Fifer, #20
M:6/8
L:1/8
Q:1/8=300
K:D 
%%MIDI program 72
%%MIDI transpose 8
%%MIDI ratio 3 1
|: B/c/ |  d2B BcB | F2B B2e | cBc ABc | ecA ABc |
d2B BcB | F2B B2f | fed cBc | F2B B2 :|
|: B | B2c d2e | f2^g a3 | f2^g a2f | ecA A2A |
B2c d2e | f^ga b3 | fed cBc | F2B B2 :|


